!!!COM: Palestrina, Giovanni Perluigi da
!!!OPR: Missa Alma Redemptoris mater
!!!OMD: Sanctus
!!!OTL: First Section
**kern	**kern	**kern	**kern	**kern	**kern
*Ibass	*Ibass	*Itenor	*Icalto	*Icalto	*Icant
!Bassus 2	!Bassus 1	!Tenor	!Altus 2	!Altus 1	!Cantus
*clefF4	*clefF4	*clefGv2	*clefG2	*clefG2	*clefG2
*k[b-]	*k[b-]	*k[b-]	*k[b-]	*k[b-]	*k[b-]
*F:ion	*F:ion	*F:ion	*F:ion	*F:ion	*F:ion
*M4/2	*M4/2	*M4/2	*M4/2	*M4/2	*M4/2
=1	=1	=1	=1	=1	=1
0r	0r	0r	0r	0r	1f
.	.	.	.	.	1a
=2	=2	=2	=2	=2	=2
0r	0r	1r	0r	0r	1b-
.	.	1F	.	.	[1cc
=3	=3	=3	=3	=3	=3
0r	0r	1A	0r	0r	2cc]
.	.	.	.	.	2cc
.	.	1B-	.	.	2dd
.	.	.	.	.	[2ff
=4	=4	=4	=4	=4	=4
0r	0r	1.c	0r	1c	2ff]
.	.	.	.	.	2.ee
.	.	.	.	1e	.
.	.	.	.	.	4dd
.	.	2c	.	.	4cc
.	.	.	.	.	4b-
=5	=5	=5	=5	=5	=5
0r	0r	2d	1r	1f	2.a
.	.	1f	.	.	.
.	.	.	.	.	4b-
.	.	.	1c	[1g	1cc
.	.	2e	.	.	.
=6	=6	=6	=6	=6	=6
0r	0r	2c	1e	2g]	2r
.	.	2e	.	2g	2cc
.	.	1d	1f	2a	2dd
.	.	.	.	2b-	[2ff
=7	=7	=7	=7	=7	=7
0r	0r	0c	1.g	2cc	2ff]
.	.	.	.	4c	2ee
.	.	.	.	4d	.
.	.	.	.	4e	2cc
.	.	.	.	4f	.
.	.	.	2g	4g	2ee
.	.	.	.	4e	.
=8	=8	=8	=8	=8	=8
0r	1r	2r	2a	2f	1dd
.	.	2G	2b-	2g	.
.	1F	2.A	[1cc	2c	2cc
.	.	.	.	2f	[2a
.	.	4B-	.	.	.
=9	=9	=9	=9	=9	=9
0r	1A	4c	1cc]	2e	4a]
.	.	4d	.	.	4b-
.	.	4e	.	2a	4cc
.	.	4f	.	.	4a
.	1B-	4d	2.b-	1f	1dd
.	.	4e	.	.	.
.	.	[2f	.	.	.
.	.	.	4a	.	.
=10	=10	=10	=10	=10	=10
1r	1c	2f]	1g	2r	[0cc
.	.	2e	.	2.cc	.
[1A	1r	2.f	2a	.	.
.	.	.	.	4b-	.
.	.	.	[2cc	[2a	.
.	.	8e	.	.	.
.	.	8d	.	.	.
=11	=11	=11	=11	=11	=11
1A]	2r	1c	4cc]	4a]	1cc]
.	.	.	4b-	4g	.
.	2F	.	2a	4f	.
.	.	.	.	4e	.
1B-	2G	1r	2g	1d	2r
.	[2B-	.	2f	.	[2f
=12	=12	=12	=12	=12	=12
1c	2B-]	1F	2.cc	0c	4f]
.	.	.	.	.	4g
.	2A	.	.	.	4a
.	.	.	4b-	.	4b-
1r	2F	1A	4a	.	1cc
.	.	.	4g	.	.
.	2A	.	[2f	.	.
=13	=13	=13	=13	=13	=13
2r	1G	1B-	2f]	0r	1b-
2G	.	.	2e	.	.
2A	2F	[1c	2f	.	2a
[2c	2C	.	[2e	.	4g
.	.	.	.	.	4f
=14	=14	=14	=14	=14	=14
2c]	2E	2c]	2e]	2r	2g
2A	2F	2c	2c	1f	2cc
2B-	2BB-	2d	1f	.	2b-
2F	2D	[2f	.	2d	2a
=15	=15	=15	=15	=15	=15
0c	0C	2f]	2r	2.g	2.cc
.	.	2e	2c	.	.
.	.	.	.	4f	4b-
.	.	2c	2.e	4e	4a
.	.	.	.	4d	4g
.	.	2e	.	2c	[2cc
.	.	.	4f	.	.
=16	=16	=16	=16	=16	=16
1G	0G	0d	4g	2d	2cc]
.	.	.	4a	.	.
.	.	.	2.g	2G	4b
.	.	.	.	.	4a
1r	.	.	.	1g	1b
.	.	.	4f	.	.
.	.	.	2d	.	.
=17	=17	=17	=17	=17	=17
2r	0C	1c	1e	2g	2cc
1c	.	.	.	1e	1g
.	.	2r	1r	.	.
2c	.	[2c	.	2e	2g
=18	=18	=18	=18	=18	=18
1.F	0r	2c]	0r	2f	2a
.	.	2c	.	4a	1cc
.	.	.	.	4g	.
.	.	1d	.	4f	.
.	.	.	.	4e	.
2G	.	.	.	[2d	[2b-
=19	=19	=19	=19	=19	=19
1A	0r	2f	0r	2d]	2b-]
.	.	1e	.	2c	2.a
1B-	.	.	.	1d	.
.	.	.	.	.	4g
.	.	[2d	.	.	[2g
=20	=20	=20	=20	=20	=20
1A	0r	4d]	0r	2e	2g]
.	.	4c	.	.	.
.	.	1c	.	2c	2f
1G	.	.	.	2.d	1g
.	.	2B-	.	.	.
.	.	.	.	4e	.
=21	=21	=21	=21	=21	=21
1F	2r	2c	2r	1f	2.a
.	1F	1A	1c	.	.
.	.	.	.	.	4b-
1r	.	.	.	2r	1cc
.	2F	2A	2c	[2f	.
=22	=22	=22	=22	=22	=22
0r	1.BB-	2B-	2d	2f]	0r
.	.	4d	1f	2f	.
.	.	4c	.	.	.
.	.	4B-	.	1g	.
.	.	4A	.	.	.
.	2C	[2G	[2e-	.	.
=23	=23	=23	=23	=23	=23
0r	1D	2G]	4e-]	2b-	0r
.	.	.	4d	.	.
.	.	2F	1d	2.a	.
.	1E-	1G	.	.	.
.	.	.	.	4g	.
.	.	.	[2c	[2g	.
=24	=24	=24	=24	=24	=24
1r	1D	2A	2c]	4g]	0r
.	.	.	.	4f	.
.	.	2F	2B-	1f	.
2r	[1C	1G	2c	.	.
[2c	.	.	[2g	4e	.
.	.	.	.	4d	.
=25	=25	=25	=25	=25	=25
2c]	1C]	0r	2g]	1e	1.cc
2c	.	.	2g	.	.
[1F	1r	.	2a	2.f	.
.	.	.	[2cc	.	2cc
.	.	.	.	4f	.
=26	=26	=26	=26	=26	=26
2F]	0r	1r	2cc]	1d	1dd
2G	.	.	2.b-	.	.
1A	.	2.c	.	1r	2ff
.	.	.	4a	.	.
.	.	.	[2a	.	[2ee
.	.	4c	.	.	.
=27	=27	=27	=27	=27	=27
1B-	0r	1d	4a]	0r	4ee]
.	.	.	4g	.	4dd
.	.	.	2.g	.	1dd
1A	.	2e	.	.	.
.	.	.	4f	.	.
.	.	2c	2f	.	[2cc
=28	=28	=28	=28	=28	=28
1G	2r	2d	2g	2r	2cc]
.	1G	2d	2d	1g	4b
.	.	.	.	.	4a
1r	.	2G	1d	.	2b
.	2G	2g	.	2g	2b
=29	=29	=29	=29	=29	=29
0r	2A	2f	2r	1c	1cc
.	1c	2e	1g	.	.
.	.	2d	.	1d	1r
.	2B-	2G	2g	.	.
=30	=30	=30	=30	=30	=30
0r	1A	2.c	2a	1e	2r
.	.	.	2.cc	.	2a
.	.	4B-	.	.	.
.	1F	2c	.	1f	2a
.	.	.	4b-	.	.
.	.	[2d	2a	.	2a
=31	=31	=31	=31	=31	=31
0r	0G	2d]	0g	1e	2b
.	.	1c	.	.	2cc
.	.	.	.	1d	2dd
.	.	2B	.	.	2dd
=32	=32	=32	=32	=32	=32
1.C	0r	2c	2.g	2c	0ee
.	.	1c	.	1e	.
.	.	.	4f	.	.
.	.	.	4e	.	.
.	.	.	4d	.	.
2C	.	2c	4c	2e	.
.	.	.	4B-	.	.
=33	=33	=33	=33	=33	=33
2D	0r	1F	2.A	2f	2r
1F	.	.	.	2a	1cc
.	.	.	4B-	.	.
.	.	1G	1c	1g	.
2E	.	.	.	.	2cc
=34	=34	=34	=34	=34	=34
1D	0r	1A	0r	2.f	2dd
.	.	.	.	.	1ff
.	.	.	.	4e	.
1BB-	.	2.B-	.	2d	.
.	.	.	.	[2f	2dd
.	.	4A	.	.	.
=35	=35	=35	=35	=35	=35
0C	2r	1G	2r	2f]	2.cc
.	1C	.	1c	4e	.
.	.	.	.	4d	4cc
.	.	1G	.	2e	1cc
.	2C	.	2c	2e	.
=36	=36	=36	=36	=36	=36
2r	1F	1F	2A	[0f	2r
1F	.	.	2d	.	1a
.	[1F	2r	2c	.	.
2F	.	2c	[2f	.	2a
=37	=37	=37	=37	=37	=37
2A	2F]	2c	4f]	0f]	2cc
.	.	.	4e	.	.
1B-	2BB-	2B-	4d	.	2dd
.	.	.	4e	.	.
.	1F	2c	4f	.	1cc
.	.	.	4g	.	.
2A	.	2c	2a	.	.
=38	=38	=38	=38	=38	=38
1B-	0BB-	4f	2.d	[0f	1b-
.	.	4e	.	.	.
.	.	4d	.	.	.
.	.	4c	4e	.	.
1B-	.	2d	2f	.	1b-
.	.	2d	2g	.	.
=39	=39	=39	=39	=39	=39
0A	0F	0c	0a	0f]	0cc
*-	*-	*-	*-	*-	*-
!!!CDT: 1525/^1526/-1594/2/2
!!!OCY: Italia
!!!AGN: Mass (Paraphrase)
!!!AST: renaissance, vocal
!!!ASW: Antiphon
!!!PWK: Masses, Book 11
!!!RNB: Cadence finals: C
!!!YOR: Le Opere Complete, v. 28, p. 148
!!!YOO: Rome, Italy: Fratelli Scalera
!!!END: 1992//
!!!EED: John Miller
!!!YEC: Copyright 2000, John Miller
!!!YEN: United States of America
!!!YEM: Rights to all derivative electronic formats reserved.
!!!YEM: Refer to licensing agreement for further details.
!!!YEM: This file must be accompanied by the licensing agreement.
!!!YEM: A copy of the licensing agreement may be found at http://www.music-cog.ohio-state.edu/HumdrumDatabases/Palestrina/license.txt
!!!EMD: converted to Humdrum by Bret Aarden
